SVG/sort-numeric-desc.svg

<?xml version="1.0" encoding="utf-8"?>
<!-- Generated by IcoMoon.io -->
<!DOCTYPE svg PUBLIC "-//W3C//DTD SVG 1.1//EN" "http://www.w3.org/Graphics/SVG/1.1/DTD/svg11.dtd">
<svg version="1.1" xmlns="http://www.w3.org/2000/svg" xmlns:xlink="http://www.w3.org/1999/xlink" width="12" height="14" viewBox="0 0 12 14">
<path fill="#444444" d="M10.516 2.258q0-0.492-0.344-0.906t-0.805-0.414q-0.406 0-0.648 0.289t-0.242 0.734 0.285 0.742 0.816 0.297q0.391 0 0.664-0.211t0.273-0.531zM5.75 11.25q0 0.094-0.078 0.187l-2.492 2.492q-0.078 0.070-0.18 0.070-0.094 0-0.18-0.070l-2.5-2.5q-0.117-0.125-0.055-0.273 0.062-0.156 0.234-0.156h1.5v-10.75q0-0.109 0.070-0.18t0.18-0.070h1.5q0.109 0 0.18 0.070t0.070 0.18v10.75h1.5q0.109 0 0.18 0.070t0.070 0.18zM11.375 13.109v0.891h-3.664v-0.891h1.305v-3.375q0-0.055 0.004-0.148t0.004-0.133v-0.125h-0.016l-0.055 0.094q-0.062 0.102-0.203 0.242l-0.484 0.453-0.641-0.672 1.5-1.445h0.961v5.109h1.289zM11.609 2.711q0 0.484-0.102 0.949t-0.32 0.891-0.531 0.746-0.77 0.512-0.996 0.191q-0.484 0-0.844-0.125-0.187-0.062-0.328-0.117l0.305-0.883q0.117 0.055 0.242 0.086 0.289 0.102 0.586 0.102 0.656 0 1.051-0.457t0.52-1.137h-0.016q-0.164 0.18-0.48 0.289t-0.66 0.109q-0.828 0-1.352-0.559t-0.523-1.348q0-0.82 0.563-1.391t1.414-0.57q0.961 0 1.602 0.738t0.641 1.973z"></path>
</svg>

<svg xmlns="http://www.w3.org/2000/svg" viewBox="0 0 12 14"><path d="M10.516 2.258q0-.492-.344-.906T9.367.938q-.406 0-.648.29t-.243.733.285.743.816.297q.39 0 .664-.21t.273-.532zM5.75 11.25q0 .094-.078.187L3.18 13.93Q3.102 14 3 14q-.094 0-.18-.07l-2.5-2.5q-.117-.126-.055-.274Q.327 11 .5 11H2V.25q0-.11.07-.18T2.25 0h1.5q.108 0 .18.07T4 .25V11h1.5q.108 0 .18.07t.07.18zm5.625 1.86V14H7.71v-.89h1.306V9.733q0-.055.004-.148t.004-.133v-.125h-.016l-.055.094q-.062.102-.203.242l-.484.453-.64-.672L9.125 8h.96v5.11h1.29zm.234-10.4q0 .485-.103.95t-.32.89-.53.747-.77.512T8.89 6q-.484 0-.844-.125-.187-.062-.328-.117l.305-.883q.117.055.242.086.29.103.586.103.657 0 1.052-.457t.52-1.137h-.016q-.164.18-.48.288t-.66.11q-.828 0-1.352-.56T7.39 1.96q0-.82.564-1.39T9.368 0q.96 0 1.602.737t.64 1.973z" /></svg>
